!!! OTL: Berkowitz108
!!! Chapter: 1
!!! Section: I
!!! Page: 26
!!! Mode: 
!!! Encoder: DJB
**kern
*staff1
*I"Piano
=1-
*clefG2
*k[b-]
*d:
*M3/4
4d/
4f/
4a/
=2
4g/
4b-\
4dd\
=3
8a/L
8g/J
8f/L
8e/J
8d/L
8e/J
=4
2f/
4e/
=5
4d/
4f/
4a/
=6
4b-\
4g/
4dd\
=7
8a/L
8g/J
8f/L
8e/J
8d/L
8c#/J
=8
2.d/
==
*-
